X: 20267
T: Joe Tom's
R: reel
M: 4/4
K: Bminor
E2 BE cEBE|E2 DB, A,B,DF|E2 BE cEBc|d2 AG FEDF|
E2 BE cEBE|E2 DB, A,B,DF|EFGA Bcde|1 fded cAFD:|2 faed cAdc||
B2 Be fB B2|cBAF Bcde|fBbB fBaB|(3gfe fd edef|
bf (3fff af (3fff|(3gfe fd edcA|B3 c dcde|1 fded cAdc:|2 fAed cAFD||

